X: 7732
T:Roxborough Castle
R:Reel
O:Scotland
M:4/4
K:A
E2|\
A2Ac ecAc|d2df ecAc|d2fd c2ec|d2B2 B2E2|\
A2Ac ecAc|d2df ecAc|
dagf edcB|c2A2A2 ::\
e2|\
aece fece|aece fece|d2fd c2ec|1\
 d2B2 B2e2|\
 aece fece|aece fece|fagf edcB|c2A2 A2 :|2\
 d2B2 B2E2|\
 A2AcecAc|d2df ecAc|dagf edcB|c2A2 A2:|
